material/.icons/material/printer-check.svg

<svg xmlns="http://www.w3.org/2000/svg" viewBox="0 0 24 24"><path d="M18 7H6V3h12v4M6 21v-4H2v-6c0-1.66 1.34-3 3-3h14c1.66 0 3 1.34 3 3v2.81c-.88-.51-1.9-.81-3-.81-1.23 0-2.36.37-3.31 1H8v5h5c0 .7.13 1.37.35 2H6m12-10c0 .55.45 1 1 1s1-.45 1-1-.45-1-1-1-1 .45-1 1m5.5 6L22 15.5 18.5 19l-2-2-1.5 1.5 3.5 3.5 5-5"/></svg>

<?xml version="1.0" encoding="UTF-8"?><!DOCTYPE svg PUBLIC "-//W3C//DTD SVG 1.1//EN" "http://www.w3.org/Graphics/SVG/1.1/DTD/svg11.dtd"><svg xmlns="http://www.w3.org/2000/svg" xmlns:xlink="http://www.w3.org/1999/xlink" version="1.1" id="mdi-printer-check" width="24" height="24" viewBox="0 0 24 24"><path d="M18 7H6V3H18V7M6 21V17H2V11C2 9.34 3.34 8 5 8H19C20.66 8 22 9.34 22 11V13.81C21.12 13.3 20.1 13 19 13C17.77 13 16.64 13.37 15.69 14H8V19H13C13 19.7 13.13 20.37 13.35 21H6M18 11C18 11.55 18.45 12 19 12S20 11.55 20 11 19.55 10 19 10 18 10.45 18 11M23.5 17L22 15.5L18.5 19L16.5 17L15 18.5L18.5 22L23.5 17" /></svg>
